X:178
T:The Old Rambler
B:Joyce, P. W.; "Old Irish Folk Music and Songs"
R:song air
L:1/8
M:3/4
K:F
"Slow and tender."\
A|d2 f2 ed|c2 d2 e2|f2 gfed|e4 fe|
d2 c2 A2|G2 A2 c2|d2 edcA|A4||fg|
a2 a2 c'a|g2 a2 g2|f2 gfed|c4 de|
f2 f2 ed|c2 e2 g2|a2 f2 e2|d4||
